X: 21723
T: HIGHLAND DRESS AND ARMOUR -- Strathspey
R: strathspey
B: K\"ohler's Violin Repository, v.2, 1885 p.172 #3
F: http://www.archive.org/details/klersviolinrepos02rugg
Z: 2012 John Chambers <jc:trillian.mit.edu>
M: C|
L: 1/8
K: C
uc |\
G<C(G>E) (G>C)E<c | G<C(G>D) E2E>c |\
G<C(G>E) (G>C)E<c | G<cE<c [D3B,3] :|\
uf |\
((3efg) ((3fga) e>cc<e | d<B(c>G) [E2C2][EC]g |
((3efg) ((3fga) e>cc<e | G<cE<c [D3B,3]f |\
((3efg) ((3fga) e>cc<e | d<B(c>G) [E2C2][EC]e |\
c<ed<e c<eA<c | G<cE<c [D3B,3] |]
|: (e/f/) |\
g<c(a>c) (g>c)e<a | g<c(g>d) e2ef |\
g<c(a>c) (g>c)e<a | g<c(g>e) {e}d2d :|\
ue |\
c>e d/c/B/A/ G>EE<c | G<E(c>G) [E2C2][EC]e |
c>.e .d/.c/.B/.A/ G<(E"_>"E>c) | G<c E<c [D3B,3]d |\
c>.e .d/.c/.B/.A/ G<(E"_>"E>c) | G<E(c>G) [E2C2][EC]e |\
c<e d<e c<e A<c | G<c "_Segue Reel."E<c [D3B,3] "^D.C."|]

%%sep 2 1 500

